X:57
T:My Love in the Morning
R:slide
H:See also #19, #56
D:Michael Tubridy: The Eagle's Whistle
Z:id:hn-slide-57
M:6/8
K:Ador
ABA AGE|c2B c2d|~e3 edB|~g3 e2d|
def gfe|dBG GAB|cBA dBG|1 ~A3 A2G:|2 ~A3 A2e||
|:~a3 aba|~g3 geg|a2a aba|~g3 e2d|
def gfe|dBG GAB|cBA dBG|1 ~A3 A2e:|2 ~A3 A2G||
<end>
<start>
